X:1
T: First Night
N:
C:
S:
A:
O:
R:
M:6/8
K:Em
I:speed 150
%W: A1
% voice 1 (1 lines, 32 notes)
K:Em
M:6/8
L:1/16
E4 G2 |B6 c6 B6 B2 A2 G2 F2 F2 F2 A2 G2 F2 G4 E2 E4 G2 |B6 c6 B6 B2 A2 G2 F2 F2 A2 G4 F2 E6 E4 G2 |
%W: A2
% voice 1 (1 lines, 31 notes)
B6 c6 B6 B2 A2 G2 F2 F2 F2 A2 G2 F2 G4 E2 E4 G2 |B6 c6 B6 B2 A2 G2 F2 F2 A2 G4 F2 E6 G2 G2 G2 |
%W: B1
% voice 1 (1 lines, 32 notes)
A4 A2 d4 d2 B4 B2 G4 G2 G4 G2 A4 A2 D6 G2 G2 G2 |A4 A2 d4 d2 B4 B2 G4 G2 G4 G2 A4 A2 G6 G2 G2 G2 |
%W: B2
% voice 1 (1 lines, 29 notes)
A4 A2 d4 d2 B4 B2 G4 G2 G4 G2 A4 A2 D6 G2 G2 G2 |A4 A2 d4 d2 B4 B2 G4 G2 G4 G2 A4 A2 G6 ||
